public/svgs/icons/modular.svg

<svg fill="none" height="93" viewBox="0 0 68 93" width="68" xmlns="http://www.w3.org/2000/svg"><g fill="#bad8db"><path d="m40.4497 23.8301h-11.62l-1.37-4.83c-.053-.1923-.0275-.3977.0709-.5712.0985-.1735.2618-.3007.4541-.3538.1923-.053.3978-.0275.5712.071.1735.0984.3008.2617.3538.454l1.09 3.73h9.34l1.06-3.76c.053-.1923.1803-.3556.3538-.454.1734-.0985.3789-.124.5712-.071.1923.0531.3556.1803.4541.3538.0984.1735.1239.3789.0709.5712z"/><path d="m34.4001 19.5201c-7.63 0-13.94-.85-18.25-2.44-5.63-2.09-6.82002-5-6.82002-7 0-2.36002 1.78002-10.0000219 24.60002-10.0000219 1.23 0 2.51 0 3.82.0699999 11.33.42 29.37 5.150002 29.37 10.000022 0 4.41-16.57 9.05-29.42 9.42-1.13-.07-2.24-.05-3.3-.05zm-.47-18.00002c-17 0-23.1 4.6-23.1 8.55002 0 2.26 2 4.2 5.85 5.62 4.14 1.52 10.32 2.31 17.72 2.31 1.05 0 2.14 0 3.26-.05 13.87-.4 28-5.37 28-7.92 0-2.88002-15.25-8.00002-27.93-8.48002-1.33-.03-2.59-.05-3.8-.05z"/><path d="m35 32.3601c-.1981-.0026-.3874-.0824-.5275-.2225s-.2199-.3294-.2225-.5275v-8.53c0-.1989.079-.3897.2197-.5303.1406-.1407.3314-.2197.5303-.2197s.3897.079.5303.2197c.1407.1406.2197.3314.2197.5303v8.53c-.0026.1981-.0824.3874-.2225.5275s-.3294.2199-.5275.2225z"/><path d="m39.14 36.4901c-.1985-.0023-.3883-.0812-.53-.22l-3.61-3.6001-3.6 3.6001c-.1422.1325-.3303.2045-.5246.2011-.1943-.0035-.3796-.0822-.5171-.2196-.1374-.1374-.2161-.3227-.2195-.517s.0687-.3824.2012-.5246l4.66-4.66 4.66 4.66c.1404.1406.2193.3313.2193.5301 0 .1987-.0789.3893-.2193.53-.1403.1349-.3255.2132-.52.22z"/><path d="m34.5795 19.5201c-7.62 0-13.93-.85-18.24-2.44-5.64-2.09-6.81997-5-6.81997-7 0-2.36002 1.76997-10.0000219 24.59997-10.0000219 1.22 0 2.51 0 3.81.0699999 7.7733.351484 15.4463 1.896202 22.75 4.580002l3.18-3.18h2.91v7c.3301.44011.5185.97026.54 1.52002-.0227.5312-.2116 1.0419-.54 1.46v7.47h-2.91l-3.64-3.64c-7.195 2.4838-14.7223 3.8726-22.33 4.12-1.14.02-2.24.04-3.31.04zm-.46-18.00002c-17 0-23.1 4.6-23.1 8.55002 0 2.26 2 4.2 5.84 5.62 4.14 1.52 10.27 2.31 17.72 2.31 1.05 0 2.14 0 3.27-.05 7.6013-.2419 15.1198-1.6552 22.29-4.19l.45-.18 3.89 3.89h.79v-6.47l.17-.21c.1992-.1928.3292-.4458.37-.72-.0367-.30079-.1701-.5815-.38-.80002l-.16-.2v-6h-.79l-3.48 3.43-.46-.19c-7.262-2.74482-14.9066-4.34392-22.66-4.74-1.29-.05-2.56-.07-3.76-.07z"/><path d="m66.3701 10.8001h-56.29c-.19893 0-.3897-.079-.53035-.2197-.14065-.1406-.21967-.3314-.21967-.5303 0-.19896.07902-.38973.21967-.53038.14065-.14066.33142-.21967.53035-.21967h56.29c.1989 0 .3897.07901.5303.21967.1407.14065.2197.33142.2197.53038 0 .1989-.079.3897-.2197.5303-.1406.1407-.3314.2197-.5303.2197z"/><path d="m16.33 92.54h-16.33v-16.33h16.33zm-14.83-1.54h13.33v-13.29h-13.33z"/><path d="m31.1601 92.54h-16.33v-16.33h16.33zm-14.83-1.54h13.33v-13.29h-13.33z"/><path d="m46.0002 92.54h-16.34v-16.33h16.34zm-14.84-1.54h13.34v-13.29h-13.34z"/><path d="m16.33 77.7101h-16.33v-16.33h16.33zm-14.83-1.5h13.33v-13.33h-13.33z"/></g><path d="m57.2502 51.32h-16.34v-16.32h16.34zm-14.84-1.5h13.34v-13.33h-13.34z" fill="#ed6a5e"/><path d="m27.58 51.32h-16.33v-16.32h16.33zm-14.83-1.5h13.33v-13.33h-13.33z" fill="#ed6a5e"/><path d="m42.4101 51.32h-16.33v-16.32h16.33zm-14.83-1.5h13.33v-13.33h-13.33z" fill="#ed6a5e"/><path d="m42.4101 66.55h-16.33v-16.33h16.33zm-14.83-1.5h13.33v-13.33h-13.33z" fill="#ed6a5e"/></svg>

<svg width="68" height="93" viewBox="0 0 68 93" fill="none" xmlns="http://www.w3.org/2000/svg">
<path d="M40.4497 23.8301H28.8297L27.4597 19.0001C27.4067 18.8078 27.4322 18.6024 27.5306 18.4289C27.6291 18.2554 27.7924 18.1282 27.9847 18.0751C28.177 18.0221 28.3825 18.0476 28.5559 18.1461C28.7294 18.2445 28.8567 18.4078 28.9097 18.6001L29.9997 22.3301H39.3397L40.3997 18.5701C40.4527 18.3778 40.58 18.2145 40.7535 18.1161C40.9269 18.0176 41.1324 17.9921 41.3247 18.0451C41.517 18.0982 41.6803 18.2254 41.7788 18.3989C41.8772 18.5724 41.9027 18.7778 41.8497 18.9701L40.4497 23.8301Z" fill="#BAD8DB"/>
<path d="M34.4001 19.5201C26.7701 19.5201 20.4601 18.6701 16.1501 17.0801C10.5201 14.9901 9.33008 12.0801 9.33008 10.0801C9.33008 7.72008 11.1101 0.0800781 33.9301 0.0800781C35.1601 0.0800781 36.4401 0.0800781 37.7501 0.150078C49.0801 0.570078 67.1201 5.30008 67.1201 10.1501C67.1201 14.5601 50.5501 19.2001 37.7001 19.5701C36.5701 19.5001 35.4601 19.5201 34.4001 19.5201ZM33.9301 1.52008C16.9301 1.52008 10.8301 6.12008 10.8301 10.0701C10.8301 12.3301 12.8301 14.2701 16.6801 15.6901C20.8201 17.2101 27.0001 18.0001 34.4001 18.0001C35.4501 18.0001 36.5401 18.0001 37.6601 17.9501C51.5301 17.5501 65.6601 12.5801 65.6601 10.0301C65.6601 7.15008 50.4101 2.03008 37.7301 1.55008C36.4001 1.52008 35.1401 1.50008 33.9301 1.50008V1.52008Z" fill="#BAD8DB"/>
<path d="M35 32.3601C34.8019 32.3575 34.6126 32.2777 34.4725 32.1376C34.3324 31.9975 34.2526 31.8082 34.25 31.6101V23.0801C34.25 22.8812 34.329 22.6904 34.4697 22.5498C34.6103 22.4091 34.8011 22.3301 35 22.3301C35.1989 22.3301 35.3897 22.4091 35.5303 22.5498C35.671 22.6904 35.75 22.8812 35.75 23.0801V31.6101C35.7474 31.8082 35.6676 31.9975 35.5275 32.1376C35.3874 32.2777 35.1981 32.3575 35 32.3601Z" fill="#BAD8DB"/>
<path d="M39.14 36.4901C38.9415 36.4878 38.7517 36.4089 38.61 36.2701L35 32.67L31.4 36.2701C31.2578 36.4026 31.0697 36.4746 30.8754 36.4712C30.6811 36.4677 30.4958 36.389 30.3583 36.2516C30.2209 36.1142 30.1422 35.9289 30.1388 35.7346C30.1354 35.5403 30.2075 35.3522 30.34 35.21L35 30.55L39.66 35.21C39.8004 35.3506 39.8793 35.5413 39.8793 35.7401C39.8793 35.9388 39.8004 36.1294 39.66 36.2701C39.5197 36.405 39.3345 36.4833 39.14 36.4901Z" fill="#BAD8DB"/>
<path d="M34.5795 19.5201C26.9595 19.5201 20.6495 18.6701 16.3395 17.0801C10.6995 14.9901 9.51953 12.0801 9.51953 10.0801C9.51953 7.72008 11.2895 0.0800781 34.1195 0.0800781C35.3395 0.0800781 36.6295 0.0800781 37.9295 0.150078C45.7028 0.501562 53.3758 2.04628 60.6795 4.73008L63.8595 1.55008H66.7695V8.55008C67.0996 8.99019 67.288 9.52034 67.3095 10.0701C67.2868 10.6013 67.0979 11.112 66.7695 11.5301V19.0001H63.8595L60.2195 15.3601C53.0245 17.8439 45.4972 19.2327 37.8895 19.4801C36.7495 19.5001 35.6495 19.5201 34.5795 19.5201ZM34.1195 1.52008C17.1195 1.52008 11.0195 6.12008 11.0195 10.0701C11.0195 12.3301 13.0195 14.2701 16.8595 15.6901C20.9995 17.2101 27.1295 18.0001 34.5795 18.0001C35.6295 18.0001 36.7195 18.0001 37.8495 17.9501C45.4508 17.7082 52.9693 16.2949 60.1395 13.7601L60.5895 13.5801L64.4795 17.4701H65.2695V11.0001L65.4395 10.7901C65.6387 10.5973 65.7687 10.3443 65.8095 10.0701C65.7728 9.76931 65.6394 9.4886 65.4295 9.27008L65.2695 9.07008V3.07008H64.4795L60.9995 6.50008L60.5395 6.31008C53.2775 3.56526 45.6329 1.96616 37.8795 1.57008C36.5895 1.52008 35.3195 1.50008 34.1195 1.50008V1.52008Z" fill="#BAD8DB"/>
<path d="M66.3701 10.8001H10.0801C9.88117 10.8001 9.6904 10.7211 9.54975 10.5804C9.4091 10.4398 9.33008 10.249 9.33008 10.0501C9.33008 9.85114 9.4091 9.66037 9.54975 9.51972C9.6904 9.37906 9.88117 9.30005 10.0801 9.30005H66.3701C66.569 9.30005 66.7598 9.37906 66.9004 9.51972C67.0411 9.66037 67.1201 9.85114 67.1201 10.0501C67.1201 10.249 67.0411 10.4398 66.9004 10.5804C66.7598 10.7211 66.569 10.8001 66.3701 10.8001Z" fill="#BAD8DB"/>
<path d="M16.33 92.54H0V76.21H16.33V92.54ZM1.5 91H14.83V77.71H1.5V91Z" fill="#BAD8DB"/>
<path d="M31.1601 92.54H14.8301V76.21H31.1601V92.54ZM16.3301 91H29.6601V77.71H16.3301V91Z" fill="#BAD8DB"/>
<path d="M46.0002 92.54H29.6602V76.21H46.0002V92.54ZM31.1602 91H44.5002V77.71H31.1602V91Z" fill="#BAD8DB"/>
<path d="M16.33 77.7101H0V61.3801H16.33V77.7101ZM1.5 76.2101H14.83V62.8801H1.5V76.2101Z" fill="#BAD8DB"/>
<path d="M57.2502 51.32H40.9102V35H57.2502V51.32ZM42.4102 49.82H55.7502V36.49H42.4102V49.82Z" fill="#ED6A5E"/>
<path d="M27.58 51.32H11.25V35H27.58V51.32ZM12.75 49.82H26.08V36.49H12.75V49.82Z" fill="#ED6A5E"/>
<path d="M42.4101 51.32H26.0801V35H42.4101V51.32ZM27.5801 49.82H40.9101V36.49H27.5801V49.82Z" fill="#ED6A5E"/>
<path d="M42.4101 66.55H26.0801V50.22H42.4101V66.55ZM27.5801 65.05H40.9101V51.72H27.5801V65.05Z" fill="#ED6A5E"/>
</svg>
